X:1
T:Title
%%score ( 1 2 ) { 3 | 4 }
L:1/8
M:4/4
K:G
V:1 treble nm="Grand Piano"
V:2 treble 
V:3 bass nm="Grand Piano"
V:4 bass 
V:1
 z4 z2[Q:1/4=100] [B,D]2 | [B,D]>[_B,^C] [=B,D]>[CE] [B,D]2 [DG]2 | [DB]2 [DG]2 [B,D]3 D | %3
 [CE]>[C^D] [CE]>[EA] [Ec]2 [EA]2 | G4 F2 D2 | [DG]>[DF] [DG]>A [GB]2 [=Fd][Fd] | %6
 [Ed]2 [Ec]2 [Ec]3 [Ec] | [DB]>[DB] [DB]>[DB] [DB]2 [DA]>[DB] |[M:3/4] [CA]2 [DG]2 [B,G]2 | %9
[M:1/4] D>G |[M:4/4] [GB]>[GB] [GB]>[GB] [Gd]2 [=Fd]2 | [Ec]6 D>[DF] | %12
 [FA]>[FA] [FA]>[FA] [Ac]2 [Ac]2 | [GB]6 D>D | [DB]>[DB] [DB]>[GB] [Gd]2 [GB]2 | %15
 [Gc]>[Gc] [Ec]>[Ec] [CE]2 [CE]>[C^D] | [B,D]>[B,D] [B,D]>[B,D] [Dd]>[DB] [DA]>D | %17
[M:3/4] [DG]2 [EG]2 [DG]2 |] %18
V:2
 x8 | x8 | x8 | x8 | D6 z2 | x8 | x8 | x8 |[M:3/4] x6 |[M:1/4] x2 |[M:4/4] x8 | x8 | x8 | x8 | x8 | %15
 x8 | x8 |[M:3/4] x6 |] %18
V:3
 z4 z2 G,2 | G,>G, G,>G, G,2 B,2 | G,2 B,2 G,3 G, | G,>G, G,>G, G,2 A,2 | B,4 A,2[K:treble] C2 | %5
 B,>C B,>C D2[K:bass] B,B, | G,2 G,2 G,3 G, | G,>G, G,>G, G,2 F,>G, |[M:3/4] F,2 G,2 G,2 | %9
[M:1/4] B,>B, |[M:4/4][K:treble] D>D D>D B,2[K:bass] G,2 | G,2 G,2 G,2 D>[K:treble]D | %12
 D>D D>D D2 D2 | D2 D2 D2[K:bass] B,>A, | G,>G, G,>G, B,2[K:treble] D2 | %15
 C>C G,>G,[K:bass] G,2 G,>G, | G,>G, G,>G, B,>G, F,>D |[M:3/4] B,2 C2 B,2 |] %18
V:4
 z4 z2 G,,2 | G,,>G,, G,,>G,, G,,2 G,2 | z2 G,2 z2 z B,, | C,>C, C,>C, C,2 C,2 | D,6 A,2 | %5
 G,>A, G,>A, G,2 G,B,, | C,2 C,2 C,3 C, | D,>D, D,>D, D,2 D,>D, |[M:3/4] D,2 B,,2 G,,2 | %9
[M:1/4] G,>G, |[M:4/4] G,>G, G,>G, G,2 B,,2 | C,2 C,2 C,2 D,>D, | D,>D, D,>D, D,2 D,2 | %13
 G,2 G,2 G,2 G,>F, | z4 G,2 G,2 | C,>C, C,>C, C,2 C,>C, | D,>D, D,>D, D,>D, D,>D, | %17
[M:3/4] [G,,G,]2 [G,,G,]2 [G,,G,]2 |] %18

